static/assets/img/icons/theme/design/position.svg

<svg height="24" viewBox="0 0 24 24" width="24" xmlns="http://www.w3.org/2000/svg"><g fill="none" fill-rule="evenodd"><path d="m0 0h24v24h-24z" opacity="0"/><path d="m6 18h3c.66666667.1143819 1 .4477153 1 1s-.33333333.8856181-1 1h-5v-5c0-.6666667.33333333-1 1-1s1 .3333333 1 1zm12 0v-3c.1143819-.6666667.4477153-1 1-1s.8856181.3333333 1 1v5h-5c-.6666667 0-1-.3333333-1-1s.3333333-1 1-1zm0-12h-3c-.6666667-.11438192-1-.44771525-1-1s.3333333-.88561808 1-1h5v5c0 .66666667-.3333333 1-1 1s-1-.33333333-1-1zm-12 0v3c-.11438192.66666667-.44771525 1-1 1s-.88561808-.33333333-1-1v-5h5c.66666667 0 1 .33333333 1 1s-.33333333 1-1 1z" fill="#000" fill-rule="nonzero"/></g></svg>

<svg width="24px" height="24px" viewBox="0 0 24 24" version="1.1" xmlns="http://www.w3.org/2000/svg" xmlns:xlink="http://www.w3.org/1999/xlink">
    <title>Icon For Position</title>
    <g stroke="none" stroke-width="1" fill="none" fill-rule="evenodd">
        <polygon opacity="0" points="0 0 24 0 24 24 0 24"></polygon>
        <path d="M6,18 L9,18 C9.66666667,18.1143819 10,18.4477153 10,19 C10,19.5522847 9.66666667,19.8856181 9,20 L4,20 L4,15 C4,14.3333333 4.33333333,14 5,14 C5.66666667,14 6,14.3333333 6,15 L6,18 Z M18,18 L18,15 C18.1143819,14.3333333 18.4477153,14 19,14 C19.5522847,14 19.8856181,14.3333333 20,15 L20,20 L15,20 C14.3333333,20 14,19.6666667 14,19 C14,18.3333333 14.3333333,18 15,18 L18,18 Z M18,6 L15,6 C14.3333333,5.88561808 14,5.55228475 14,5 C14,4.44771525 14.3333333,4.11438192 15,4 L20,4 L20,9 C20,9.66666667 19.6666667,10 19,10 C18.3333333,10 18,9.66666667 18,9 L18,6 Z M6,6 L6,9 C5.88561808,9.66666667 5.55228475,10 5,10 C4.44771525,10 4.11438192,9.66666667 4,9 L4,4 L9,4 C9.66666667,4 10,4.33333333 10,5 C10,5.66666667 9.66666667,6 9,6 L6,6 Z" fill="#000000" fill-rule="nonzero"></path>
    </g>
</svg>
